src/assets/icons/roles-et-permissions.svg

<svg width="24" height="24" viewBox="0 0 24 24" fill="none" xmlns="http://www.w3.org/2000/svg">
<path fill-rule="evenodd" clip-rule="evenodd" d="M11.7379 23.9664C4.90527 21.6243 0 18.4903 0 11.043V3.77173C0 3.44064 0.275273 3.1716 0.614953 3.1716C4.97091 3.1704 9.15892 1.79118 11.6472 0.0736637C11.7313 0.015583 11.8388 0 11.9422 0H12.0574C12.1604 0 12.2675 0.0160313 12.3524 0.0736637C14.8866 1.79415 19.0283 3.1704 23.3846 3.1716C23.7243 3.1716 24 3.44064 24 3.77173V11.043C24 18.4903 19.0939 21.6247 12.2613 23.9664C12.1957 23.9888 12.1268 24 12.0574 24H11.9422C11.8724 24 11.8035 23.9888 11.7379 23.9664ZM11.8971 12.7906C8.95431 12.7906 6.56396 13.9439 6.56396 16.7942H17.2303C17.2303 13.9439 14.8399 12.7906 11.8971 12.7906ZM12 6.18848C13.3796 6.18848 14.5 7.30858 14.5 8.68848C14.5 10.0684 13.3796 11.1885 12 11.1885C10.6204 11.1885 9.5 10.0684 9.5 8.68848C9.5 7.30858 10.6204 6.18848 12 6.18848Z" fill="#32324D"/>
</svg>

<svg width="24" height="24" fill="none" xmlns="http://www.w3.org/2000/svg"><path fill-rule="evenodd" clip-rule="evenodd" d="M11.738 23.966C4.905 21.624 0 18.49 0 11.043V3.772c0-.331.275-.6.615-.6C4.971 3.17 9.159 1.792 11.647.074A.516.516 0 0111.942 0h.115c.103 0 .21.016.295.074 2.535 1.72 6.676 3.096 11.033 3.098.34 0 .615.269.615.6v7.271c0 7.447-4.906 10.582-11.739 12.923a.63.63 0 01-.204.034h-.115a.631.631 0 01-.204-.034zm.16-11.175c-2.944 0-5.334 1.153-5.334 4.003H17.23c0-2.85-2.39-4.003-5.333-4.003zM12 6.188a2.501 2.501 0 010 5 2.501 2.501 0 010-5z" fill="#32324D"/></svg>
